X: 30702
T: Orcas Moon
R: barndance
M: 4/4
K: Dmajor
de|f2fe fd AF|G2B2 A3/2B/c/ d3/2e/|f2fe agfe|f2 ed e2 de|
f2fe fd AF|G2B2 A3/2B/c/ d3/2e/|faaf gfed|cdec d3:|
F3 E FD FA|f2 d2 A3 F|G2 E2 E3 F|GFAF B2 A2|
A2 FG A2 (3FGA|f2 d2 A3F|G2 e2 E2 FE|D8|
F3E FD FA|f2 d2 A3F|G2 e2 e3 f|gfaf bfaf|
dADF ADFA|f2 d2 A3 F|G2 e2 ef ec|d8||
|:fdAF DFAd|f2 fe f3 f|gecA cega|baa^g a2 f3/2=g/|
afdA DFAd|f2 fe f3 f|1 gafd egec|(3dcB AF D4:|
[2 ~g4 fedc|d8:|

